X:265
T: Die Brombeeren (29b), S. 112
N: T0154
O: Luxemburg
S: Singendes Volk, Esch-Alzette 1937 posth.]
N: Hamm, ? Welter, 26.3.1933;
N: (29c)- Heffingen, fff Ewen, 10.3.1933
R: Liebeslieder]
M: 4/4
L: 1/8
K: G
D2 | G2D2D2G2 | E2E2E2
G2 | F2A2c2F2 | G2z4
GA | BBBBB2Bd | d2c2A2z2
D2F2A2e2 | e2dcBz
dd | d2c2E2F2 | G2z4
GA | BBBBB2Bd | d2c2A2z2
D2F2A2e2 | e2dcBz
dd | d2c2E2F2 | G2z4

